X: 630
T: Schottis fraan Lima
B: good tune book
B: tunes
M:C|
R: schottis
Q: 1/4=100
K:Dm
V:1 
A=B^cd e2ef|d2de ^c2^c2|A=B^cd e2ef|(3gagfg a4|
A=B^cd e2ef|d2de ^c2^c2|defg age^c|dfe^c d4:|
|:agef g2g2|afde f2f2|e^cA^c e^cA^c|defg a4|
agef g2g2|afde f2f2|e^cA^c e^cA^c|dfe^c d4:|
% abcbook-tune_id 63dce85b48886ea31c3dc207
% abcbook-tune_composer_id 
% abcbook-link-0 https://www.youtube.com/watch?v=RRrEWJmhim4
% abcbook-boost 0
% abcbook-difficulty 0
% abcbook-tags good tune book
% abcbook-tablature 
% abcbook-transpose 
% abcbook-tuning 
% abcbook-lastupdated 1675479446807
% abcbook-soundfonts 
% abcbook-repeats 1
% Rhythm Schottis
% Titles One title
% Transcriptions Only 1 transcription
% Movement Has lots of stepwise movement
% Movement Has some stepwise movement
% Mode minor
% Key D
% Time_signature 2/2
% Text Has history text
% Has_accompaniment_chords No chords

